icons/pills_2_fill.svg

<svg width="48" height="48" viewBox="0 0 48 48" fill="none" xmlns="http://www.w3.org/2000/svg">
<path fill-rule="evenodd" clip-rule="evenodd" d="M16 26C21.5228 26 26 21.5228 26 16C26 10.4772 21.5228 6 16 6C10.4772 6 6 10.4772 6 16C6 21.5228 10.4772 26 16 26ZM20.3037 15.3083C20.8143 15.0978 21.0576 14.5133 20.8472 14.0027C20.6368 13.492 20.0522 13.2487 19.5416 13.4591L11.6964 16.6922C11.1858 16.9026 10.9424 17.4872 11.1529 17.9978C11.3633 18.5084 11.9478 18.7518 12.4585 18.5413L20.3037 15.3083Z" fill="black"/>
<path fill-rule="evenodd" clip-rule="evenodd" d="M32 42C37.5228 42 42 37.5228 42 32C42 26.4772 37.5228 22 32 22C26.4772 22 22 26.4772 22 32C22 37.5228 26.4772 42 32 42ZM35.9107 33.9252C36.449 34.0489 36.9856 33.7129 37.1093 33.1746C37.2331 32.6364 36.8971 32.0998 36.3588 31.976L28.0893 30.0749C27.551 29.9511 27.0144 30.2871 26.8906 30.8254C26.7669 31.3636 27.1029 31.9003 27.6412 32.024L35.9107 33.9252Z" fill="black"/>
</svg>

<svg
  xmlns="http://www.w3.org/2000/svg"
  width="24"
  height="24"
  viewBox="0 0 24 24"
  fill="none"
  stroke="currentColor"
  stroke-width="2"
  stroke-linecap="round"
  stroke-linejoin="round"
>
  <path
    fill-rule="evenodd"
    d="M16 26c5.523 0 10-4.477 10-10S21.523 6 16 6 6 10.477 6 16s4.477 10 10 10m4.304-10.692a1 1 0 0 0-.762-1.849l-7.846 3.233a1 1 0 1 0 .763 1.85z"
    clip-rule="evenodd"
  />
  <path
    fill-rule="evenodd"
    d="M32 42c5.523 0 10-4.477 10-10s-4.477-10-10-10-10 4.477-10 10 4.477 10 10 10m3.91-8.075a1 1 0 1 0 .449-1.949l-8.27-1.901a1 1 0 1 0-.448 1.949z"
    clip-rule="evenodd"
  />
</svg>
